assets/illustrations/screens/Screen-builder-off.svg

<svg width="480" height="304" viewBox="0 0 480 304" fill="none" xmlns="http://www.w3.org/2000/svg">
<path d="M24 36C24 29.3726 29.3726 24 36 24H444C450.627 24 456 29.3726 456 36V56H24V36Z" fill="#1A2437"/>
<rect x="40" y="34" width="56" height="12" rx="6" fill="#8CA0B3"/>
<rect x="104" y="37" width="24" height="6" rx="3" fill="#B9CBD3"/>
<rect x="136" y="37" width="32" height="6" rx="3" fill="#B9CBD3"/>
<path d="M251.53 47.7942V35.6785C251.53 35.5499 251.629 35.4727 251.729 35.4727H254.11C254.209 35.4727 254.284 35.5499 254.308 35.627L254.457 36.373C255.077 35.627 255.97 35.2669 257.087 35.2669C259.294 35.2669 260.956 36.7331 260.956 39.9743C260.956 43.2155 259.319 44.7074 257.087 44.7074C255.995 44.7074 255.077 44.3473 254.457 43.5756V47.7685C254.457 47.8971 254.358 47.9743 254.259 47.9743H251.704C251.605 48 251.53 47.9229 251.53 47.7942ZM254.482 40.7717C254.482 40.8489 254.482 40.9261 254.507 41.0032C254.78 41.955 255.4 42.3666 256.169 42.3666C257.211 42.3666 257.93 41.6721 257.93 40C257.93 38.328 257.211 37.6335 256.169 37.6335C255.35 37.6335 254.73 38.045 254.507 38.9968C254.482 39.074 254.482 39.1254 254.482 39.2026V40.7717Z" fill="white"/>
<path d="M234.241 32H236.796C236.92 32 236.995 32.1029 236.995 32.2058V36.3987C237.615 35.6527 238.533 35.2669 239.624 35.2669C241.856 35.2669 243.494 36.7588 243.494 40C243.494 43.2412 241.832 44.7074 239.624 44.7074C238.508 44.7074 237.615 44.3473 236.995 43.6013L236.846 44.3473C236.821 44.4502 236.747 44.5016 236.647 44.5016H234.266C234.142 44.5016 234.068 44.3987 234.068 44.2958V32.2058C234.043 32.0772 234.117 32 234.241 32ZM236.995 40.8232C236.995 40.9003 236.995 40.9518 237.02 41.0289C237.243 41.9807 237.863 42.3923 238.681 42.3923C239.723 42.3923 240.443 41.6977 240.443 40.0257C240.443 38.3537 239.723 37.6592 238.681 37.6592C237.912 37.6592 237.292 38.0707 237.02 39.0225C236.995 39.0997 236.995 39.1768 236.995 39.254V40.8232Z" fill="white"/>
<path d="M244.188 32H246.743C246.867 32 246.941 32.1029 246.941 32.2058V44.3215C246.941 44.4502 246.842 44.5273 246.743 44.5273H244.188C244.064 44.5273 243.99 44.4244 243.99 44.3215V32.2058C243.99 32.0772 244.064 32 244.188 32Z" fill="white"/>
<path d="M247.76 34.1093V32.2058C247.76 32.0772 247.859 32 247.958 32H250.513C250.637 32 250.712 32.1029 250.712 32.2058V34.1093C250.712 34.2379 250.613 34.3151 250.513 34.3151H247.958C247.834 34.3151 247.76 34.2122 247.76 34.1093ZM247.958 35.4727H250.513C250.637 35.4727 250.712 35.5756 250.712 35.6785V44.3215C250.712 44.4502 250.613 44.5273 250.513 44.5273H247.958C247.834 44.5273 247.76 44.4244 247.76 44.3215V35.6785C247.76 35.5498 247.834 35.4727 247.958 35.4727Z" fill="white"/>
<path d="M225.535 32C223.923 32 222.261 32.2572 221.12 33.0032C219.284 34.1865 218.738 36.5016 218.788 38.6109C218.838 40.4373 219.309 42.418 220.574 43.7814C221.765 45.0675 224.245 45.6592 225.932 45.6592C226.006 45.6592 226.081 45.7106 226.081 45.8135V47.6656C226.081 47.8457 226.229 48 226.403 48H226.428C226.502 48 226.552 47.9743 226.601 47.9228C227.445 47.1769 228.288 46.4051 229.132 45.6077C229.925 44.8617 230.818 44.0643 231.414 43.164C232.703 41.2605 232.902 38.5338 232.48 36.2958C232.059 34.135 230.595 32.7203 228.536 32.283C227.668 32.1286 226.601 32 225.535 32Z" fill="#80E3EB"/>
<path d="M24 56H456V268C456 274.627 450.627 280 444 280H36C29.3726 280 24 274.627 24 268V56Z" fill="#192438"/>
<rect width="432" height="22" transform="translate(24 56)" fill="#233049"/>
<rect x="160" y="76" width="16" height="2" fill="#80E3EB"/>
<rect x="152" y="64" width="32" height="6" rx="3" fill="#8CA0B3"/>
<rect x="192" y="64" width="48" height="6" rx="3" fill="#8CA0B3"/>
<rect x="248" y="64" width="24" height="6" rx="3" fill="#8CA0B3"/>
<rect x="280" y="64" width="48" height="6" rx="3" fill="#8CA0B3"/>
<rect x="52" y="119" width="24" height="24" rx="12" fill="#00C6D7"/>
<path d="M69.1052 130.68H64.5852V126.167C64.5852 126.034 64.5326 125.907 64.4388 125.813C64.345 125.719 64.2179 125.667 64.0852 125.667C63.9526 125.667 63.8255 125.719 63.7317 125.813C63.6379 125.907 63.5852 126.034 63.5852 126.167V130.68H59.0852C58.9683 130.699 58.8621 130.759 58.7854 130.85C58.7087 130.94 58.6666 131.055 58.6666 131.173C58.6666 131.292 58.7087 131.406 58.7854 131.497C58.8621 131.587 58.9683 131.647 59.0852 131.667H63.5986V136.173C63.5986 136.306 63.6513 136.433 63.745 136.527C63.8388 136.621 63.966 136.673 64.0986 136.673C64.2312 136.673 64.3584 136.621 64.4521 136.527C64.5459 136.433 64.5986 136.306 64.5986 136.173V131.667H69.1052C69.2379 131.667 69.365 131.614 69.4588 131.52C69.5526 131.426 69.6052 131.299 69.6052 131.167C69.6052 131.034 69.5526 130.907 69.4588 130.813C69.365 130.719 69.2379 130.667 69.1052 130.667V130.68Z" fill="white"/>
<circle cx="64" cy="163" r="12" fill="#0A0F1A"/>
<circle cx="64" cy="195" r="12" fill="#0A0F1A"/>
<circle cx="64" cy="227" r="12" fill="#0A0F1A"/>
<g filter="url(#filter0_d_12035_6918)">
<rect x="92" y="113.608" width="84" height="50" rx="8" fill="#3A4A65"/>
<rect x="114" y="135.608" width="40" height="6" rx="3" fill="#8CA0B3"/>
</g>
<path d="M135 171.608C135 171.055 134.552 170.608 134 170.608C133.448 170.608 133 171.055 133 171.608L135 171.608ZM133.293 187.099C133.683 187.49 134.317 187.49 134.707 187.099L141.071 180.735C141.462 180.345 141.462 179.712 141.071 179.321C140.681 178.931 140.047 178.931 139.657 179.321L134 184.978L128.343 179.321C127.953 178.931 127.319 178.931 126.929 179.321C126.538 179.712 126.538 180.345 126.929 180.735L133.293 187.099ZM133 171.608L133 186.392L135 186.392L135 171.608L133 171.608Z" fill="#8CA0B3"/>
<g filter="url(#filter1_d_12035_6918)">
<rect x="92" y="194.392" width="84" height="50" rx="8" fill="white"/>
<rect x="106" y="211.392" width="56" height="6" rx="3" fill="#D2DFE6"/>
<rect x="122" y="221.392" width="24" height="6" rx="3" fill="#D2DFE6"/>
</g>
<path d="M184 218.392C183.448 218.392 183 218.84 183 219.392C183 219.945 183.448 220.392 184 220.392V218.392ZM200.707 220.099C201.098 219.709 201.098 219.076 200.707 218.685L194.343 212.321C193.953 211.931 193.319 211.931 192.929 212.321C192.538 212.712 192.538 213.345 192.929 213.735L198.586 219.392L192.929 225.049C192.538 225.44 192.538 226.073 192.929 226.463C193.319 226.854 193.953 226.854 194.343 226.463L200.707 220.099ZM184 220.392H200V218.392H184V220.392Z" fill="#8CA0B3"/>
<g filter="url(#filter2_d_12035_6918)">
<rect x="208" y="194.392" width="84" height="50" rx="8" fill="white"/>
<rect x="234" y="206.392" width="32" height="6" rx="3" fill="#D2DFE6"/>
<rect x="220" y="216.392" width="60" height="6" rx="3" fill="#D2DFE6"/>
<rect x="234" y="226.392" width="32" height="6" rx="3" fill="#D2DFE6"/>
</g>
<defs>
<filter id="filter0_d_12035_6918" x="80.8" y="102.408" width="117.6" height="83.6" filterUnits="userSpaceOnUse" color-interpolation-filters="sRGB">
<feFlood flood-opacity="0" result="BackgroundImageFix"/>
<feColorMatrix in="SourceAlpha" type="matrix" values="0 0 0 0 0 0 0 0 0 0 0 0 0 0 0 0 0 0 127 0" result="hardAlpha"/>
<feOffset dx="5.6" dy="5.6"/>
<feGaussianBlur stdDeviation="8.4"/>
<feColorMatrix type="matrix" values="0 0 0 0 0 0 0 0 0 0 0 0 0 0 0 0 0 0 0.25 0"/>
<feBlend mode="normal" in2="BackgroundImageFix" result="effect1_dropShadow_12035_6918"/>
<feBlend mode="normal" in="SourceGraphic" in2="effect1_dropShadow_12035_6918" result="shape"/>
</filter>
<filter id="filter1_d_12035_6918" x="80.8" y="183.192" width="117.6" height="83.6" filterUnits="userSpaceOnUse" color-interpolation-filters="sRGB">
<feFlood flood-opacity="0" result="BackgroundImageFix"/>
<feColorMatrix in="SourceAlpha" type="matrix" values="0 0 0 0 0 0 0 0 0 0 0 0 0 0 0 0 0 0 127 0" result="hardAlpha"/>
<feOffset dx="5.6" dy="5.6"/>
<feGaussianBlur stdDeviation="8.4"/>
<feColorMatrix type="matrix" values="0 0 0 0 0 0 0 0 0 0 0 0 0 0 0 0 0 0 0.25 0"/>
<feBlend mode="normal" in2="BackgroundImageFix" result="effect1_dropShadow_12035_6918"/>
<feBlend mode="normal" in="SourceGraphic" in2="effect1_dropShadow_12035_6918" result="shape"/>
</filter>
<filter id="filter2_d_12035_6918" x="196.8" y="183.192" width="117.6" height="83.6" filterUnits="userSpaceOnUse" color-interpolation-filters="sRGB">
<feFlood flood-opacity="0" result="BackgroundImageFix"/>
<feColorMatrix in="SourceAlpha" type="matrix" values="0 0 0 0 0 0 0 0 0 0 0 0 0 0 0 0 0 0 127 0" result="hardAlpha"/>
<feOffset dx="5.6" dy="5.6"/>
<feGaussianBlur stdDeviation="8.4"/>
<feColorMatrix type="matrix" values="0 0 0 0 0 0 0 0 0 0 0 0 0 0 0 0 0 0 0.25 0"/>
<feBlend mode="normal" in2="BackgroundImageFix" result="effect1_dropShadow_12035_6918"/>
<feBlend mode="normal" in="SourceGraphic" in2="effect1_dropShadow_12035_6918" result="shape"/>
</filter>
</defs>
</svg>

<svg width="480" height="304" fill="none" xmlns="http://www.w3.org/2000/svg"><path d="M24 36c0-6.627 5.373-12 12-12h408c6.627 0 12 5.373 12 12v20H24V36Z" fill="#1A2437"/><rect x="40" y="34" width="56" height="12" rx="6" fill="#8CA0B3"/><rect x="104" y="37" width="24" height="6" rx="3" fill="#B9CBD3"/><rect x="136" y="37" width="32" height="6" rx="3" fill="#B9CBD3"/><path d="M251.53 47.794V35.68a.2.2 0 0 1 .199-.206h2.381c.099 0 .174.077.198.154l.149.746c.62-.746 1.513-1.106 2.63-1.106 2.207 0 3.869 1.466 3.869 4.707 0 3.242-1.637 4.733-3.869 4.733-1.092 0-2.01-.36-2.63-1.131v4.193a.199.199 0 0 1-.198.205h-2.555c-.099.026-.174-.051-.174-.18Zm2.952-7.022c0 .077 0 .154.025.231.273.952.893 1.364 1.662 1.364 1.042 0 1.761-.695 1.761-2.367 0-1.672-.719-2.367-1.761-2.367-.819 0-1.439.412-1.662 1.364-.025.077-.025.128-.025.206v1.569ZM234.241 32h2.555c.124 0 .199.103.199.206v4.193c.62-.746 1.538-1.132 2.629-1.132 2.232 0 3.87 1.492 3.87 4.733 0 3.241-1.662 4.707-3.87 4.707-1.116 0-2.009-.36-2.629-1.106l-.149.746c-.025.103-.099.155-.199.155h-2.381c-.124 0-.198-.103-.198-.206v-12.09c-.025-.129.049-.206.173-.206Zm2.754 8.823c0 .077 0 .129.025.206.223.952.843 1.363 1.661 1.363 1.042 0 1.762-.694 1.762-2.366 0-1.672-.72-2.367-1.762-2.367-.769 0-1.389.412-1.661 1.364-.025.077-.025.154-.025.231v1.57ZM244.188 32h2.555c.124 0 .198.103.198.206V44.32a.199.199 0 0 1-.198.206h-2.555c-.124 0-.198-.103-.198-.206V32.206c0-.129.074-.206.198-.206Zm3.572 2.11v-1.904c0-.129.099-.206.198-.206h2.555c.124 0 .199.103.199.206v1.903a.2.2 0 0 1-.199.206h-2.555c-.124 0-.198-.103-.198-.206Zm.198 1.363h2.555c.124 0 .199.103.199.206v8.642a.2.2 0 0 1-.199.206h-2.555c-.124 0-.198-.103-.198-.206V35.68c0-.13.074-.206.198-.206Z" fill="#fff"/><path d="M225.535 32c-1.612 0-3.274.257-4.415 1.003-1.836 1.184-2.382 3.499-2.332 5.608.05 1.826.521 3.807 1.786 5.17 1.191 1.287 3.671 1.878 5.358 1.878.074 0 .149.052.149.154v1.853c0 .18.148.334.322.334h.025a.22.22 0 0 0 .173-.077c.844-.746 1.687-1.518 2.531-2.315.793-.746 1.686-1.544 2.282-2.444 1.289-1.904 1.488-4.63 1.066-6.868-.421-2.161-1.885-3.576-3.944-4.013a17.573 17.573 0 0 0-3.001-.283Z" fill="#80E3EB"/><path d="M24 56h432v212c0 6.627-5.373 12-12 12H36c-6.627 0-12-5.373-12-12V56Z" fill="#192438"/><path fill="#233049" d="M24 56h432v22H24z"/><path fill="#80E3EB" d="M160 76h16v2h-16z"/><rect x="152" y="64" width="32" height="6" rx="3" fill="#8CA0B3"/><rect x="192" y="64" width="48" height="6" rx="3" fill="#8CA0B3"/><rect x="248" y="64" width="24" height="6" rx="3" fill="#8CA0B3"/><rect x="280" y="64" width="48" height="6" rx="3" fill="#8CA0B3"/><rect x="52" y="119" width="24" height="24" rx="12" fill="#00C6D7"/><path d="M69.105 130.68h-4.52v-4.513a.5.5 0 1 0-1 0v4.513h-4.5a.496.496 0 0 0-.418.493.501.501 0 0 0 .418.494H63.6v4.506a.501.501 0 1 0 1 0v-4.506h4.506a.5.5 0 0 0 0-1v.013Z" fill="#fff"/><circle cx="64" cy="163" r="12" fill="#0A0F1A"/><circle cx="64" cy="195" r="12" fill="#0A0F1A"/><circle cx="64" cy="227" r="12" fill="#0A0F1A"/><g filter="url(#screen-builder-off__a)"><rect x="92" y="113.608" width="84" height="50" rx="8" fill="#3A4A65"/><rect x="114" y="135.608" width="40" height="6" rx="3" fill="#8CA0B3"/></g><path d="M135 171.608a1 1 0 1 0-2 0h2Zm-1.707 15.491a.999.999 0 0 0 1.414 0l6.364-6.364a.999.999 0 1 0-1.414-1.414L134 184.978l-5.657-5.657a1 1 0 0 0-1.414 1.414l6.364 6.364ZM133 171.608v14.784h2v-14.784h-2Z" fill="#8CA0B3"/><g filter="url(#screen-builder-off__b)"><rect x="92" y="194.392" width="84" height="50" rx="8" fill="#fff"/><rect x="106" y="211.392" width="56" height="6" rx="3" fill="#D2DFE6"/><rect x="122" y="221.392" width="24" height="6" rx="3" fill="#D2DFE6"/></g><path d="M184 218.392a1 1 0 0 0 0 2v-2Zm16.707 1.707a.999.999 0 0 0 0-1.414l-6.364-6.364a1 1 0 0 0-1.414 1.414l5.657 5.657-5.657 5.657a.999.999 0 1 0 1.414 1.414l6.364-6.364Zm-16.707.293h16v-2h-16v2Z" fill="#8CA0B3"/><g filter="url(#screen-builder-off__c)"><rect x="208" y="194.392" width="84" height="50" rx="8" fill="#fff"/><rect x="234" y="206.392" width="32" height="6" rx="3" fill="#D2DFE6"/><rect x="220" y="216.392" width="60" height="6" rx="3" fill="#D2DFE6"/><rect x="234" y="226.392" width="32" height="6" rx="3" fill="#D2DFE6"/></g><defs><filter id="screen-builder-off__a" x="80.8" y="102.408" width="117.6" height="83.6" filterUnits="userSpaceOnUse" color-interpolation-filters="sRGB"><feFlood flood-opacity="0" result="BackgroundImageFix"/><feColorMatrix in="SourceAlpha" values="0 0 0 0 0 0 0 0 0 0 0 0 0 0 0 0 0 0 127 0" result="hardAlpha"/><feOffset dx="5.6" dy="5.6"/><feGaussianBlur stdDeviation="8.4"/><feColorMatrix values="0 0 0 0 0 0 0 0 0 0 0 0 0 0 0 0 0 0 0.25 0"/><feBlend in2="BackgroundImageFix" result="effect1_dropShadow_12035_6918"/><feBlend in="SourceGraphic" in2="effect1_dropShadow_12035_6918" result="shape"/></filter><filter id="screen-builder-off__b" x="80.8" y="183.192" width="117.6" height="83.6" filterUnits="userSpaceOnUse" color-interpolation-filters="sRGB"><feFlood flood-opacity="0" result="BackgroundImageFix"/><feColorMatrix in="SourceAlpha" values="0 0 0 0 0 0 0 0 0 0 0 0 0 0 0 0 0 0 127 0" result="hardAlpha"/><feOffset dx="5.6" dy="5.6"/><feGaussianBlur stdDeviation="8.4"/><feColorMatrix values="0 0 0 0 0 0 0 0 0 0 0 0 0 0 0 0 0 0 0.25 0"/><feBlend in2="BackgroundImageFix" result="effect1_dropShadow_12035_6918"/><feBlend in="SourceGraphic" in2="effect1_dropShadow_12035_6918" result="shape"/></filter><filter id="screen-builder-off__c" x="196.8" y="183.192" width="117.6" height="83.6" filterUnits="userSpaceOnUse" color-interpolation-filters="sRGB"><feFlood flood-opacity="0" result="BackgroundImageFix"/><feColorMatrix in="SourceAlpha" values="0 0 0 0 0 0 0 0 0 0 0 0 0 0 0 0 0 0 127 0" result="hardAlpha"/><feOffset dx="5.6" dy="5.6"/><feGaussianBlur stdDeviation="8.4"/><feColorMatrix values="0 0 0 0 0 0 0 0 0 0 0 0 0 0 0 0 0 0 0.25 0"/><feBlend in2="BackgroundImageFix" result="effect1_dropShadow_12035_6918"/><feBlend in="SourceGraphic" in2="effect1_dropShadow_12035_6918" result="shape"/></filter></defs></svg>
